static/assets/images/exchanges/gyroscope.svg

<svg width="236" height="256" viewBox="0 0 236 256" fill="none" xmlns="http://www.w3.org/2000/svg">
<path d="M160.588 188.775L120.611 172.01C102.813 185.834 72.0055 198.693 63.8103 191.808L63.7033 191.886C77.9652 206.239 96.9998 215.852 118.231 218.154L118.605 217.764C136.801 208.29 149.346 198.225 160.588 188.775Z" fill="url(#paint0_linear_10243_964)"/>
<path d="M128.136 0C57.369 0 0 57.3079 0 128C0 198.692 57.369 256 128.136 256C149.545 255.978 170.606 250.598 189.398 240.351C208.189 230.105 224.111 215.319 235.709 197.343H235.843V114.624H198.129H198.125L177.954 114.583C168.713 128.47 156.6 140.967 144.211 153.326H198.125V184.98C189.684 195.422 179.027 203.863 166.923 209.692C154.82 215.521 141.572 218.593 128.136 218.687C124.789 218.687 121.484 218.506 118.231 218.154C96.9998 215.852 77.9652 206.239 63.7033 191.886L63.6693 191.852L63.7725 191.776L63.7941 191.794L63.8103 191.808L63.865 191.768C54.4057 181.004 69.5446 124.452 139.759 58.4567C101.682 69.942 62.1924 103.162 38.8771 143.987L38.7618 144.005C37.8357 138.809 37.3525 133.461 37.3525 128C37.3525 77.9148 77.9978 37.3127 128.136 37.3127C143.099 37.375 157.814 41.1305 170.972 48.2452C184.131 55.36 195.325 65.6133 203.559 78.093L234.817 57.312C223.146 39.7108 207.298 25.2669 188.685 15.2672C170.071 5.26755 149.271 0.0227008 128.136 0Z" fill="#EBFF68"/>
<defs>
<linearGradient id="paint0_linear_10243_964" x1="96.084" y1="208.294" x2="109.858" y2="183.097" gradientUnits="userSpaceOnUse">
<stop stop-color="#EBFF68"/>
<stop offset="1" stop-color="#EBFF68" stop-opacity="0"/>
</linearGradient>
</defs>
</svg>

<svg xmlns="http://www.w3.org/2000/svg" fill="none" viewBox="0 0 236 256"><path fill="url(#paint0_linear_10243_964)" d="m160.588 188.775-39.977-16.765c-17.798 13.824-48.606 26.683-56.8 19.798l-.108.078c14.262 14.353 33.297 23.966 54.528 26.268l.374-.39c18.196-9.474 30.741-19.539 41.983-28.989"/><path fill="#EBFF68" d="M128.136 0C57.369 0 0 57.308 0 128s57.369 128 128.136 128a128.24 128.24 0 0 0 61.262-15.649 128.1 128.1 0 0 0 46.311-43.008h.134v-82.719h-37.718l-20.171-.041c-9.241 13.887-21.354 26.384-33.743 38.743h53.914v31.654a90.8 90.8 0 0 1-31.202 24.712 90.9 90.9 0 0 1-38.787 8.995c-3.347 0-6.652-.181-9.905-.533-21.231-2.302-40.266-11.915-54.528-26.268l-.034-.034.104-.076.021.018.016.014.055-.04c-9.46-10.764 5.68-67.316 75.894-133.311-38.077 11.485-77.567 44.705-100.882 85.53l-.115.018A91 91 0 0 1 37.352 128c0-50.085 40.646-90.687 90.784-90.687a90.86 90.86 0 0 1 42.836 10.932 90.75 90.75 0 0 1 32.587 29.848l31.258-20.781a128.1 128.1 0 0 0-46.132-42.045A128.24 128.24 0 0 0 128.136 0"/><defs><linearGradient id="paint0_linear_10243_964" x1="96.084" x2="109.858" y1="208.294" y2="183.097" gradientUnits="userSpaceOnUse"><stop stop-color="#EBFF68"/><stop offset="1" stop-color="#EBFF68" stop-opacity="0"/></linearGradient></defs></svg>
